!!!COM: Mozart
!!!OTL: 12 Variations on "Ah Vous dirais-je, Maman" for the Piano
!!!Variation: 9 a
**function	**harm	**kern	**kern
*	*	*clefG2	*clefG2
*	*	*k[]	*k[]
*M2/4	*M2/4	*M2/4	*M2/4
*C:	*C:	*C:	*C:
=217	=217	=217	=217
2T	2I	2r	4cc'
.	.	.	4cc'
=218	=218	=218	=218
2T	2I	2r	4gg'
.	.	.	[4gg
*	*	*clefG2	*
=219	=219	=219	=219
*	*	*	*^
2T	2IV	4f'	4gg]	2aa
.	.	4f'	[4ff	.
=220	=220	=220	=220	=220
2T	2I	4cc'	4ff]	2gg
.	.	4cc'	[4ee	.
*	*	*clefF4	*	*
=221	=221	=221	=221	=221
2T	2V7	4G'	4ee]	2ff
.	.	4G'	[4dd	.
=222	=222	=222	=222	=222
2T	2I	4c'	4dd]	4.ee
.	.	4c'	8ccL	.
.	.	.	8r	8cc
=223	=223	=223	=223	=223
2D	2V7	4GGG 4GG	2d 2f	(8ccL
.	.	.	.	8bJ
.	.	4GGG 4GG	.	8aL
.	.	.	.	8bJ)
=224	=224	=224	=224	=224
2T	2I	4CC 4C	4e	4cc
*	*	*	*v	*v
.	.	4r	4r
*-	*-	*-	*-
